X:80
%%score 1 2
T:The Legend of Sir Guy
M:3/4
L:1/8
K:F
V:1 clef-treble
V:2 clef-bass octave=-1
V:1
F Ac&xFx|f2c2dB&F4F2|c3F Ac&F2x2F2|f2A2BG&F4DE|F3F Ac&F3xF2|
w:Was ever* knight for la-dy's sake So toss'd in love as I, Sir Guy! For Phillis*
V:2
zF2|A3F BG|(A2F)zF2|D3D G,C|(F,2F)zF2|
V:1
f2c2dB&F4F2|c3F Ac&F2x2F2|f2A2BG&F4DE|F3&F3||[CG][CA][CF]|
w:fair, that la-dy bright As e-ver man be-held with eye. She gave me
V:2
A3F BG|(A2F)zF2|D3D G,C|(F,2F)||EFD|
V:1
[CG]2(AB/c/) BA&x2C2D2|G3GAF&E3CCC|G2c2d=B&C2G2F2|c3c_BA&E2xCEF|
w:leave my-**self to try The va-liant knight with shield and spear, Ere that her
V:2
E2F2B,2|C2C, EFD|E3EGG,|C2C, A[G_B][Fc]|
V:1
B2(AB/c/) [DFB][CEG]&G2F2x2|[CEG]3C[CF][CEG]|[CFA]2[CFc]2AG&x4[B,E]2|[A,F]3||
w:love she** would grant me, Which made me ven-ture far and near.
V:2
[Ec]2[Fc]2B,F|C2C, BAG|F2A,2C2|F2F,||

